X:1
T: Craighall
C:
R:Jig
Q:180
K:A
M:6/8
L:1/16
|:e2|f2e2c2 A4A2|B2A2F2 D4F2|E4e2 c2B2A2|G2B2B2 B4e2|
f2e2c2 A4A2|B2A2F2 d4F2|E2F2A2 B2c2B2|A6 A4e2|
a2g2a2 A2c2e2|f4e2 f2g2a2|e4A2 c2B2A2|G2B2B2 B4e2|
a2g2a2 e2c2A2|B2A2F2 d4F2|E2F2A2 B2c2B2|A6 A4:|
